lib/logo_tmp/nrk-logo-nrk-folkemusikk-title-below-on-light.svg

<svg width="112" height="36" viewBox="0 0 112 36" fill="none" xmlns="http://www.w3.org/2000/svg">
<path d="M0 15.0034V1.00465H4.59339V15.0034H0ZM10.8428 3.23262L13.4844 15.0034H8.45737L5.30307 1.00465H8.12254C8.76907 0.996258 9.39641 1.22417 9.88691 1.6455C10.3782 2.04916 10.7158 2.60952 10.8428 3.23262ZM14.1744 15.0034V1.00465H18.7678V15.0034H14.1744ZM22.2372 6.32816C21.7422 6.33299 21.2552 6.20348 20.828 5.9535C20.4064 5.70985 20.0563 5.35966 19.8127 4.93808C19.5624 4.51076 19.4329 4.0236 19.4378 3.52841C19.4321 3.03625 19.5618 2.55199 19.8127 2.12854C20.0589 1.71153 20.4086 1.36515 20.828 1.12298C21.2553 0.873297 21.7423 0.743811 22.2372 0.748325C22.7292 0.743026 23.2133 0.872628 23.6369 1.12298C24.0521 1.36728 24.3981 1.71337 24.6424 2.12854C24.893 2.55211 25.0226 3.03629 25.0172 3.52841C25.0218 4.02356 24.8923 4.51064 24.6424 4.93808C24.4007 5.35781 24.0542 5.7077 23.6369 5.9535C23.2133 6.20435 22.7289 6.33398 22.2366 6.32816H22.2372ZM25.7269 15.0034V1.00465H30.3207V15.0034H25.7269ZM36.136 8.65465C36.1489 8.66823 36.2475 8.82924 36.4317 9.13769C36.6159 9.44615 36.8558 9.84051 37.1513 10.3207C37.447 10.8007 37.759 11.31 38.0874 11.8487C38.4157 12.3874 38.7247 12.8968 39.0143 13.3768C39.3028 13.8568 39.6313 14.399 40 15.0034H34.9531C34.6375 14.4907 34.3515 14.0274 34.0952 13.6134C33.8389 13.1993 33.5665 12.7524 33.2778 12.2726C32.9884 11.7933 32.7024 11.3267 32.4196 10.8728C32.1368 10.4188 31.8938 10.0213 31.6905 9.67994C31.4863 9.33841 31.3449 9.10835 31.2663 8.98984C31.0713 8.69573 30.9559 8.35605 30.9315 8.00401C30.951 7.66613 31.0597 7.33952 31.2466 7.05734C31.3254 6.9259 31.47 6.69254 31.6803 6.35736C31.8906 6.02218 32.137 5.62461 32.4196 5.16455C32.7021 4.7045 32.9882 4.23458 33.2778 3.75481C33.5674 3.27505 33.8398 2.82482 34.0952 2.4042C34.3519 1.98402 34.6379 1.51739 34.9531 1.00433H40L36.0962 7.37279C35.9754 7.56187 35.9073 7.77978 35.8991 8.00401C35.9121 8.23942 35.9942 8.46575 36.1353 8.65465H36.136Z" fill="#0A2343"/>
<path d="M0 35.0052H2.07028V29.2281H7.35434L7.57128 27.5131H2.07028V22.7413H9.22751V21.0062H0V35.0052Z" fill="#7B0A02"/>
<path d="M17.4396 25.3644C16.6181 24.9278 15.6979 24.7105 14.7679 24.7334C13.8293 24.712 12.9015 24.9363 12.0763 25.384C11.3147 25.8104 10.692 26.447 10.2824 27.2177C9.83714 28.0824 9.61661 29.0452 9.64119 30.0175C9.61615 30.9821 9.82237 31.9388 10.2426 32.8074C10.6202 33.5657 11.2227 34.1888 11.9678 34.5918C12.7698 35.012 13.6652 35.2223 14.5704 35.203C15.5181 35.2218 16.4548 34.998 17.2916 34.5527C18.0726 34.1263 18.7131 33.4823 19.1352 32.699C19.5932 31.824 19.8206 30.8467 19.7957 29.8595C19.8183 28.9192 19.6082 27.9879 19.1841 27.1484C18.7913 26.3947 18.1843 25.774 17.4396 25.3644ZM17.3209 31.9695C17.0998 32.482 16.7243 32.9128 16.2467 33.2018C15.7671 33.4766 15.222 33.6164 14.6693 33.6063C14.1273 33.6199 13.593 33.476 13.1311 33.1922C12.6743 32.8885 12.3175 32.4565 12.1058 31.9504C11.8377 31.301 11.7102 30.6022 11.7315 29.8999C11.7083 29.2165 11.8361 28.5365 12.1058 27.9082C12.327 27.4143 12.6956 27.0011 13.161 26.7251C13.6584 26.4514 14.2198 26.3153 14.7873 26.3308C15.2306 26.3197 15.671 26.4037 16.0791 26.5773C16.4364 26.7384 16.748 26.9858 16.9861 27.2972C17.2402 27.6353 17.4244 28.0206 17.5279 28.4306C17.6513 28.9104 17.7109 29.4045 17.7054 29.8999C17.7285 30.6095 17.5974 31.3155 17.3209 31.9695Z" fill="#7B0A02"/>
<path d="M25.3456 33.5557C25.2769 33.5633 25.2078 33.5668 25.1386 33.5662C24.9902 33.5705 24.8425 33.5435 24.7051 33.487C24.5858 33.4335 24.4835 33.3483 24.4094 33.2406C24.3237 33.1128 24.2666 32.9681 24.2418 32.8163C24.2061 32.6147 24.1896 32.4101 24.1925 32.2054V20.1193L22.1811 20.4151V33.0929C22.1727 33.4253 22.2263 33.7563 22.3391 34.069C22.4335 34.3232 22.5892 34.5501 22.7926 34.7295C22.9948 34.9032 23.2343 35.028 23.4926 35.0942C23.779 35.1687 24.074 35.2052 24.3699 35.2027C24.5277 35.2027 24.6786 35.1961 24.8235 35.1833C24.9684 35.1705 25.1094 35.1504 25.2474 35.1238C25.3854 35.0972 25.5 35.0712 25.5921 35.0453L25.7893 33.4873L25.5523 33.5267C25.4741 33.5399 25.4051 33.5494 25.3456 33.5557Z" fill="#7B0A02"/>
<path d="M36.3775 24.9495H33.9129L30.539 28.6563H29.8118V20.1193L27.8011 20.4151V35.0055H29.8118V30.1749H29.8447L33.8731 35.0055H36.4758L31.6932 29.6163L36.3775 24.9495Z" fill="#7B0A02"/>
<path d="M45.1907 26.2213C44.8122 25.7307 44.3128 25.3469 43.7414 25.1073C43.1066 24.8482 42.4258 24.7207 41.7402 24.7327C41.0496 24.721 40.3642 24.8553 39.7291 25.127C39.1514 25.3799 38.6365 25.7569 38.2208 26.2312C37.7924 26.7293 37.4702 27.3096 37.274 27.9367C37.0493 28.6543 36.9396 29.4029 36.949 30.1548C36.9211 31.1048 37.1204 32.0478 37.5303 32.9053C37.9051 33.6484 38.5104 34.2502 39.2556 34.6207C40.13 35.0326 41.0895 35.2319 42.0557 35.2023C42.5204 35.2062 42.9849 35.1765 43.4454 35.1136C43.8305 35.0582 44.2099 34.9691 44.5794 34.8474C44.9457 34.7244 45.3017 34.5728 45.6441 34.3939L45.7821 32.8757C45.5321 32.9677 45.2791 33.0598 45.0228 33.1518C44.7664 33.2438 44.5003 33.326 44.2245 33.3983C43.9461 33.4712 43.6628 33.5238 43.3767 33.5557C43.0887 33.5888 42.799 33.6054 42.5091 33.6052C41.9914 33.6136 41.4747 33.5573 40.9709 33.4376C40.5647 33.3403 40.1888 33.1438 39.8769 32.8659C39.562 32.5657 39.3309 32.1885 39.2066 31.7715C39.0777 31.3493 39.0055 30.9118 38.9917 30.4706H46.117C46.2141 29.6549 46.1776 28.8289 46.0086 28.0251C45.8699 27.3716 45.5908 26.7562 45.1907 26.2213ZM40.222 26.6948C40.6845 26.4136 41.2188 26.273 41.7599 26.2903C42.3014 26.2632 42.8363 26.4195 43.2781 26.734C43.6707 27.0473 43.9508 27.4798 44.0763 27.9663C44.175 28.3259 44.2234 28.6974 44.2202 29.0704H39.035C39.0716 28.6772 39.1555 28.2899 39.2851 27.9169C39.4536 27.4171 39.7831 26.9873 40.222 26.6948Z" fill="#7B0A02"/>
<path d="M62.2059 25.1467C61.6683 24.8548 61.0625 24.7118 60.4511 24.7327C59.9205 24.7311 59.3936 24.8212 58.8935 24.9989C58.3857 25.1808 57.9074 25.4366 57.4742 25.758C57.2286 25.94 56.9949 26.1375 56.7746 26.3494C56.5725 25.8558 56.216 25.4408 55.7585 25.1665C55.2144 24.873 54.6019 24.7301 53.9841 24.7524C53.4568 24.7526 52.9333 24.8427 52.4362 25.0186C51.926 25.1982 51.4445 25.4504 51.0065 25.7678C50.8648 25.87 50.7278 25.9807 50.5924 26.0964V24.7534L48.5813 25.0492V35.0061H50.5924V27.5069C50.8294 27.3517 51.0764 27.2124 51.3318 27.0899C51.6446 26.9421 51.9716 26.8265 52.3078 26.7448C52.6176 26.6684 52.9353 26.6287 53.2545 26.6265C53.5473 26.6176 53.839 26.6681 54.1119 26.7747C54.3379 26.8703 54.5375 27.0189 54.6938 27.2081C54.8649 27.428 54.983 27.6844 55.0389 27.9574C55.1156 28.3103 55.1519 28.6708 55.1473 29.0319V35.0061H57.1584V28.6176C57.1598 28.2404 57.1344 27.8637 57.0822 27.4901C57.3102 27.3403 57.5462 27.2033 57.7893 27.0797C58.0967 26.925 58.4207 26.8059 58.7551 26.7247C59.0715 26.6474 59.396 26.6076 59.7216 26.6064C60.0112 26.5993 60.2993 26.6496 60.5694 26.7544C60.7994 26.848 61.0026 26.9971 61.1609 27.1884C61.3324 27.4079 61.4504 27.6643 61.5057 27.9373C61.5827 28.2901 61.6192 28.6505 61.6145 29.0116V35.0058H63.6255V28.5978C63.6507 27.8521 63.5301 27.1086 63.2706 26.409C63.0662 25.8814 62.6915 25.4372 62.2059 25.1467Z" fill="#7B0A02"/>
<path d="M73.2473 32.5511C73.0985 32.6414 72.9516 32.7256 72.8034 32.7969C72.5691 32.9115 72.329 33.0136 72.084 33.1028C71.8496 33.1874 71.6089 33.2534 71.3641 33.3C71.1139 33.3468 70.8598 33.3699 70.6053 33.369C70.1882 33.385 69.774 33.2934 69.4026 33.1031C69.0835 32.9217 68.8364 32.6362 68.7026 32.2944C68.5399 31.8702 68.4628 31.418 68.4755 30.9638V24.7531L66.4645 25.0488V31.3184C66.4401 32.0667 66.571 32.8118 66.8489 33.507C67.0776 34.0554 67.4885 34.5081 68.0122 34.7886C68.5963 35.0798 69.2432 35.2221 69.8955 35.203C70.3075 35.2058 70.7182 35.1561 71.1176 35.0551C71.499 34.9565 71.8668 34.8108 72.2122 34.6214C72.5676 34.426 72.904 34.1982 73.2174 33.9408C73.2752 33.8938 73.3325 33.8386 73.39 33.789L73.6808 35.0048H75.2384L75.2581 24.7521L73.2473 25.0478V32.5511Z" fill="#7B0A02"/>
<path d="M84.5642 30.4706C84.3625 30.2563 84.1299 30.0735 83.8741 29.9281C83.6094 29.7766 83.3322 29.648 83.0456 29.5437C82.8355 29.4779 82.6286 29.4089 82.4249 29.3366C82.2211 29.2643 82.0173 29.1985 81.8133 29.1394C81.6096 29.0802 81.4125 29.0179 81.2219 28.9521C81.0432 28.8914 80.8688 28.8189 80.6997 28.7352C80.5375 28.6491 80.3825 28.5503 80.236 28.4395C80.101 28.3377 79.9872 28.2104 79.9011 28.0649C79.8141 27.9154 79.7696 27.7449 79.7726 27.572C79.7674 27.3819 79.8153 27.1941 79.911 27.0297C80.0139 26.8683 80.1565 26.736 80.3251 26.6453C80.5314 26.5321 80.7543 26.4522 80.9856 26.4084C81.2747 26.3531 81.5686 26.3268 81.863 26.3298C82.0072 26.3298 82.1653 26.3367 82.3361 26.3495C82.507 26.3623 82.694 26.386 82.8981 26.4189C83.1021 26.4517 83.3053 26.4944 83.509 26.5463C83.7127 26.5983 83.9197 26.6584 84.1304 26.7241C84.3253 26.7841 84.5162 26.8566 84.7018 26.9413L84.8402 25.344C84.5903 25.239 84.3438 25.1469 84.1008 25.0676C83.858 24.9891 83.6112 24.9232 83.3615 24.8704C83.1175 24.8188 82.8706 24.7827 82.6221 24.762C82.3787 24.7423 82.1388 24.7324 81.9024 24.7324C81.3578 24.7268 80.8145 24.7898 80.2856 24.9197C79.8333 25.0299 79.4032 25.2165 79.0139 25.4718C78.661 25.7052 78.3728 26.024 78.1759 26.3985C77.9699 26.8112 77.8683 27.2682 77.8801 27.7294C77.874 28.0615 77.9275 28.3921 78.0379 28.7054C78.1313 28.9683 78.2716 29.2121 78.452 29.425C78.6272 29.6263 78.8295 29.8021 79.0533 29.9475C79.2861 30.1004 79.5338 30.2292 79.7927 30.332C79.9368 30.3848 80.088 30.4373 80.2462 30.4894C80.4044 30.5415 80.5588 30.591 80.7095 30.6379C80.8602 30.6839 81.0082 30.7298 81.1532 30.7756C81.2974 30.8219 81.439 30.8676 81.577 30.9136C81.715 30.9596 81.8498 31.0023 81.9813 31.0418C82.1577 31.1043 82.329 31.18 82.4939 31.2685C82.6386 31.345 82.7741 31.4376 82.8981 31.5446C83.0072 31.6399 83.0945 31.7576 83.1541 31.8896C83.2145 32.026 83.2449 32.1738 83.2431 32.323C83.25 32.4689 83.2245 32.6146 83.1682 32.7494C83.1119 32.8842 83.0264 33.0048 82.9178 33.1025C82.6736 33.3063 82.382 33.4452 82.07 33.5064C81.7042 33.5871 81.3306 33.6268 80.956 33.6247C80.7218 33.6233 80.4881 33.6068 80.2561 33.5754C79.9998 33.5425 79.7302 33.4965 79.4476 33.4374C79.165 33.3782 78.8758 33.306 78.5798 33.2205C78.2845 33.1351 77.9855 33.0398 77.683 32.9349L77.7619 34.6109C78.1034 34.7292 78.4156 34.8244 78.6984 34.8967C78.9813 34.969 79.2507 35.0315 79.5068 35.0841C79.7538 35.1352 80.0042 35.1682 80.2561 35.1827C80.499 35.1956 80.7455 35.2021 80.9955 35.2021C81.5454 35.2049 82.094 35.1485 82.632 35.0341C83.1055 34.9381 83.5589 34.7615 83.9726 34.5119C84.3455 34.2842 84.6542 33.9653 84.8698 33.5852C85.0954 33.1682 85.2075 32.6992 85.1948 32.2251C85.203 31.8792 85.1463 31.5347 85.0275 31.2097C84.9216 30.936 84.7643 30.6852 84.5642 30.4706Z" fill="#7B0A02"/>
<path d="M89.3048 20.6217C89.1002 20.4966 88.8646 20.4317 88.6248 20.4344C88.382 20.4326 88.1434 20.4974 87.9348 20.6217C87.7294 20.7423 87.5568 20.9116 87.4323 21.1147C87.3072 21.3193 87.2422 21.5551 87.245 21.7949C87.2429 22.0378 87.3077 22.2765 87.4323 22.4849C87.5527 22.6913 87.7262 22.8615 87.9348 22.9779C88.1454 23.0961 88.3833 23.1573 88.6248 23.1553C88.8633 23.1581 89.0981 23.0968 89.3048 22.9779C89.5078 22.8606 89.6749 22.6902 89.7881 22.4849C89.9064 22.2743 89.9676 22.0365 89.9656 21.7949C89.9683 21.5564 89.907 21.3215 89.7881 21.1147C89.6708 20.9125 89.5046 20.743 89.3048 20.6217Z" fill="#7B0A02"/>
<path d="M87.5808 35.0052H89.592V24.7524L87.5808 25.0482V35.0052Z" fill="#7B0A02"/>
<path d="M101.245 24.9495H98.78L95.4061 28.6563H94.6789V20.1193L92.6678 20.4151V35.0055H94.6789V30.1749H94.7118L98.7402 35.0055H101.343L96.5603 29.6163L101.245 24.9495Z" fill="#7B0A02"/>
<path d="M109.092 35.0052H111.695L106.912 29.6159L111.596 24.9495H109.131L105.757 28.6563H105.03V20.1193L103.019 20.4151V35.0055H105.03V30.1749H105.063L109.092 35.0052Z" fill="#7B0A02"/>
</svg>

<svg xmlns="http://www.w3.org/2000/svg" viewBox="0 0 112 36"><path fill="#0A2343" d="M0 15.003V1.005h4.593v13.998H0Zm10.843-11.77 2.641 11.77H8.457L5.303 1.005h2.82a2.655 2.655 0 0 1 1.764.64c.491.404.829.965.956 1.588Zm3.331 11.77V1.005h4.594v13.998h-4.594Zm8.063-8.675a2.737 2.737 0 0 1-1.409-.375 2.778 2.778 0 0 1-1.015-1.015 2.735 2.735 0 0 1-.375-1.41 2.685 2.685 0 0 1 .375-1.4 2.812 2.812 0 0 1 3.824-1.005c.415.244.761.59 1.005 1.006.251.423.38.907.375 1.4.005.495-.125.982-.375 1.41a2.8 2.8 0 0 1-1.005 1.014c-.424.251-.908.381-1.4.375Zm3.49 8.675V1.005h4.594v13.998h-4.594Zm10.409-6.348c.013.013.111.174.296.483.184.308.424.703.72 1.183a384.573 384.573 0 0 1 1.862 3.056c.289.48.617 1.022.986 1.626h-5.047l-.858-1.39c-.256-.414-.529-.86-.817-1.34-.29-.48-.576-.946-.858-1.4a71.293 71.293 0 0 1-.73-1.193 21.096 21.096 0 0 0-.424-.69 2.04 2.04 0 0 1-.334-.986c.019-.338.128-.664.315-.947.078-.131.223-.364.433-.7a216.7 216.7 0 0 0 1.598-2.603l.817-1.35.858-1.4H40l-3.904 6.369c-.12.189-.189.407-.197.631.013.235.095.462.236.65h.001Z"/><path fill="#7B0A02" d="M0 35.005h2.07v-5.777h5.284l.217-1.715h-5.5v-4.772h7.157v-1.735H0v14ZM17.44 25.364a5.41 5.41 0 0 0-2.672-.63 5.387 5.387 0 0 0-2.692.65 4.547 4.547 0 0 0-1.794 1.834 5.796 5.796 0 0 0-.64 2.8 6.046 6.046 0 0 0 .6 2.79c.378.758.98 1.38 1.726 1.784.802.42 1.697.63 2.602.611a5.558 5.558 0 0 0 2.722-.65 4.596 4.596 0 0 0 1.843-1.854 5.807 5.807 0 0 0 .66-2.84 5.708 5.708 0 0 0-.61-2.71 4.309 4.309 0 0 0-1.745-1.785Zm-.12 6.605a2.682 2.682 0 0 1-1.073 1.233 3.06 3.06 0 0 1-1.578.404 2.804 2.804 0 0 1-1.538-.414 2.78 2.78 0 0 1-1.025-1.242 4.978 4.978 0 0 1-.374-2.05 4.65 4.65 0 0 1 .374-1.992c.221-.494.59-.907 1.055-1.183a3.193 3.193 0 0 1 1.626-.394c.444-.011.884.073 1.292.246.357.161.669.409.907.72.254.338.438.724.542 1.134.123.48.183.973.177 1.469a4.904 4.904 0 0 1-.384 2.07ZM25.346 33.556a1.745 1.745 0 0 1-.207.01 1.06 1.06 0 0 1-.434-.079.713.713 0 0 1-.296-.246 1.072 1.072 0 0 1-.167-.425 3.24 3.24 0 0 1-.05-.61V20.118l-2.01.296v12.678c-.01.332.044.663.157.976.095.254.25.481.454.66.202.174.441.299.7.365.286.075.581.111.877.109.158 0 .309-.007.453-.02.145-.013.286-.033.424-.06.138-.026.253-.052.345-.078l.197-1.558-.237.04a3.413 3.413 0 0 1-.206.029ZM36.377 24.95h-2.464l-3.374 3.706h-.727V20.12l-2.01.296v14.59h2.01v-4.83h.033l4.028 4.83h2.603l-4.783-5.389 4.684-4.666ZM45.19 26.221a3.578 3.578 0 0 0-1.449-1.114 5.061 5.061 0 0 0-2-.374 4.902 4.902 0 0 0-2.012.394 4.297 4.297 0 0 0-1.508 1.104 4.825 4.825 0 0 0-.947 1.706 7.125 7.125 0 0 0-.325 2.218c-.028.95.171 1.893.581 2.75.375.743.98 1.345 1.726 1.716a6.13 6.13 0 0 0 2.8.581 9.67 9.67 0 0 0 1.39-.088 6.653 6.653 0 0 0 1.133-.267 7.354 7.354 0 0 0 1.065-.453l.138-1.518c-.25.092-.503.184-.76.276a9.482 9.482 0 0 1-.797.246 5.949 5.949 0 0 1-.848.158c-.288.033-.578.05-.868.05a6.218 6.218 0 0 1-1.538-.168 2.531 2.531 0 0 1-1.094-.572 2.498 2.498 0 0 1-.67-1.095 4.99 4.99 0 0 1-.215-1.3h7.125a7.549 7.549 0 0 0-.108-2.446 4.609 4.609 0 0 0-.818-1.804Zm-4.968.474a2.789 2.789 0 0 1 1.538-.405 2.41 2.41 0 0 1 1.518.444c.393.313.673.746.798 1.232.099.36.147.731.144 1.104h-5.185c.037-.393.12-.78.25-1.153.169-.5.498-.93.937-1.222ZM62.206 25.147a3.432 3.432 0 0 0-1.755-.414 4.61 4.61 0 0 0-1.557.266 5.488 5.488 0 0 0-1.42.759 7.15 7.15 0 0 0-.7.591 2.471 2.471 0 0 0-1.016-1.183 3.473 3.473 0 0 0-1.774-.414c-.527 0-1.05.09-1.548.267a5.612 5.612 0 0 0-1.844 1.077v-1.343l-2.01.296v9.957h2.01v-7.5c.237-.154.484-.294.74-.416.313-.148.64-.264.976-.345a4.07 4.07 0 0 1 .947-.119c.292-.008.584.042.857.149.226.095.425.244.582.433.17.22.289.476.345.75.077.352.113.713.108 1.074v5.974h2.011v-6.388a7.934 7.934 0 0 0-.076-1.128c.228-.15.464-.287.707-.41.308-.155.632-.274.966-.355.316-.078.641-.117.967-.119.29-.007.577.044.847.148.23.094.434.243.592.434.171.22.29.476.345.75.077.352.113.713.108 1.074v5.994h2.012v-6.408a5.737 5.737 0 0 0-.355-2.189 2.54 2.54 0 0 0-1.065-1.262ZM73.247 32.551c-.148.09-.295.175-.444.246a7.396 7.396 0 0 1-.719.306c-.234.084-.475.15-.72.197a4.05 4.05 0 0 1-.759.069 2.433 2.433 0 0 1-1.202-.266 1.602 1.602 0 0 1-.7-.809 3.446 3.446 0 0 1-.228-1.33v-6.21l-2.01.295v6.27a5.42 5.42 0 0 0 .384 2.188 2.58 2.58 0 0 0 1.163 1.282 3.961 3.961 0 0 0 1.883.414 4.85 4.85 0 0 0 1.223-.148 4.75 4.75 0 0 0 1.094-.434 6.573 6.573 0 0 0 1.005-.68c.058-.047.115-.102.173-.152l.29 1.216h1.558l.02-10.253-2.01.296v7.503ZM84.564 30.47a2.948 2.948 0 0 0-.69-.542 5.354 5.354 0 0 0-.828-.384c-.21-.066-.417-.135-.621-.207a10.905 10.905 0 0 0-.612-.198c-.203-.059-.4-.121-.591-.187a4.281 4.281 0 0 1-.522-.217 3.45 3.45 0 0 1-.464-.296 1.296 1.296 0 0 1-.335-.374.947.947 0 0 1-.128-.493c-.006-.19.042-.378.138-.542a1.12 1.12 0 0 1 .414-.385c.206-.113.43-.193.66-.237a4.43 4.43 0 0 1 .878-.078 6.388 6.388 0 0 1 1.035.089c.204.033.407.075.611.127.204.052.41.112.621.178.195.06.386.133.572.217l.138-1.597a9.593 9.593 0 0 0-.74-.276 7.339 7.339 0 0 0-.738-.198 5.967 5.967 0 0 0-.74-.108 8.92 8.92 0 0 0-.72-.03 6.5 6.5 0 0 0-1.616.188 4.08 4.08 0 0 0-1.272.552 2.513 2.513 0 0 0-.838.926c-.206.413-.308.87-.296 1.331-.006.332.047.663.158.976.093.263.234.507.414.72.175.201.377.377.601.523.233.152.48.281.74.384.144.053.295.105.453.157.158.052.313.102.464.149a48.008 48.008 0 0 1 .867.276c.138.046.273.088.404.128.177.062.348.138.513.226.145.077.28.17.404.277a1.01 1.01 0 0 1 .345.778.986.986 0 0 1-.325.78 1.891 1.891 0 0 1-.848.403c-.366.081-.74.12-1.114.119a5.46 5.46 0 0 1-.7-.05 10.474 10.474 0 0 1-.808-.138 11.98 11.98 0 0 1-.868-.216 18.01 18.01 0 0 1-.897-.286l.079 1.676c.341.118.654.213.936.286.283.072.553.135.809.187.247.051.497.084.75.099.242.013.489.02.739.02a7.68 7.68 0 0 0 1.636-.169 4.217 4.217 0 0 0 1.34-.522c.374-.228.682-.547.898-.927.225-.417.337-.886.325-1.36a2.767 2.767 0 0 0-.167-1.015 2.302 2.302 0 0 0-.464-.74ZM89.305 20.622a1.276 1.276 0 0 0-.68-.188 1.329 1.329 0 0 0-.69.188c-.206.12-.378.29-.503.493-.125.204-.19.44-.187.68-.002.243.063.481.187.69.12.206.294.377.503.493.21.118.448.18.69.177.238.003.473-.058.68-.177.203-.117.37-.288.483-.493.118-.21.18-.448.178-.69a1.334 1.334 0 0 0-.178-.68 1.397 1.397 0 0 0-.483-.493ZM87.58 35.005h2.012V24.752l-2.011.296v9.957ZM101.245 24.95H98.78l-3.374 3.706h-.727V20.12l-2.011.296v14.59h2.01v-4.83h.034l4.028 4.83h2.603l-4.783-5.389 4.685-4.666ZM109.092 35.005h2.603l-4.783-5.39 4.684-4.665h-2.465l-3.374 3.706h-.727V20.12l-2.011.296v14.59h2.011v-4.83h.033l4.029 4.83Z"/></svg>
